assets/icons/cancel_icon.svg

<svg width="16" height="16" viewBox="0 0 16 16" fill="none" xmlns="http://www.w3.org/2000/svg">
<path fill-rule="evenodd" clip-rule="evenodd" d="M10.0064 9.99843C9.89307 10.1118 9.74641 10.1724 9.59307 10.1724C9.44641 10.1724 9.29974 10.1191 9.18641 9.99843L7.99974 8.81909L6.81307 9.99843C6.69974 10.1118 6.55307 10.1724 6.39974 10.1724C6.25307 10.1724 6.09974 10.1118 5.98641 9.99843C5.75974 9.77243 5.75974 9.40576 5.98641 9.17243L7.17307 7.99243L5.98641 6.80509C5.75974 6.57909 5.75974 6.20576 5.98641 5.97909C6.21307 5.75176 6.57974 5.75176 6.81307 5.97909L7.99974 7.16509L9.17974 5.97909C9.41307 5.75176 9.77974 5.75176 10.0064 5.97909C10.2331 6.20576 10.2331 6.57909 10.0064 6.80509L8.81974 7.99243L10.0064 9.17909C10.2331 9.40576 10.2331 9.77243 10.0064 9.99843ZM5.11301 1.33203C2.85301 1.33203 1.33301 2.9187 1.33301 5.2787V10.726C1.33301 13.0794 2.85301 14.6654 5.11301 14.6654H10.893C13.153 14.6654 14.6663 13.0794 14.6663 10.726V5.2787C14.6663 2.9187 13.153 1.33203 10.893 1.33203V1.33203H5.11301Z" fill="#B0B5DD"/>
</svg>

<svg width="16" height="16" fill="none" xmlns="http://www.w3.org/2000/svg"><path fill-rule="evenodd" clip-rule="evenodd" d="M10.006 9.998a.581.581 0 0 1-.413.174.549.549 0 0 1-.407-.174L8 8.82 6.813 10a.581.581 0 0 1-.827 0 .587.587 0 0 1 0-.827l1.187-1.18-1.187-1.187a.587.587 0 0 1 0-.826.586.586 0 0 1 .827 0L8 7.165 9.18 5.98a.586.586 0 0 1 .826 0c.227.227.227.6 0 .826L8.82 7.992l1.186 1.187a.579.579 0 0 1 0 .82zM5.113 1.332c-2.26 0-3.78 1.587-3.78 3.947v5.447c0 2.353 1.52 3.94 3.78 3.94h5.78c2.26 0 3.773-1.587 3.773-3.94V5.279c0-2.36-1.513-3.947-3.773-3.947h-5.78z" fill="#B0B5DD"/></svg>
